img/nav-logo.svg

<svg width="144" height="50" fill="none" xmlns="http://www.w3.org/2000/svg"><circle cx="25" cy="25" r="25" fill="#2E1AEB"/><circle cx="25" cy="25" r="20" fill="#422EFF"/><path d="M15 15h5l7.5 10h-5L15 15ZM27.5 25 35 35h-5l-7.5-10h5Z" fill="#FAFAFA"/><path d="M27.5 25 20 35h-5l7.5-10h5ZM26.9 19.133 30 15h5l-4.9 6.533a2 2 0 1 1-3.2-2.4Z" fill="#FAFAFA"/><path d="M75.632 33V16.2h3.648l5.352 10.656 5.28-10.656h3.648V33h-3.072V21.408l-4.68 9.192h-2.424l-4.68-9.192V33h-3.072Zm26.828.288c-1.152 0-2.192-.264-3.12-.792a5.957 5.957 0 0 1-2.184-2.184c-.529-.944-.793-2.032-.793-3.264 0-1.232.272-2.312.817-3.24a5.905 5.905 0 0 1 2.183-2.208c.929-.528 1.969-.792 3.121-.792 1.136 0 2.16.264 3.072.792a5.68 5.68 0 0 1 2.184 2.208c.544.928.816 2.008.816 3.24 0 1.232-.272 2.32-.816 3.264a5.727 5.727 0 0 1-2.184 2.184c-.928.528-1.96.792-3.096.792Zm0-2.664c.8 0 1.496-.296 2.088-.888.592-.608.888-1.504.888-2.688 0-1.184-.296-2.072-.888-2.664-.592-.608-1.28-.912-2.064-.912-.816 0-1.52.304-2.112.912-.576.592-.865 1.48-.865 2.664 0 1.184.288 2.08.865 2.688.592.592 1.288.888 2.088.888ZM113.932 33l-4.368-11.904h3.216l3.024 9 3.024-9h3.216L117.652 33h-3.72Zm11.706-13.752c-.56 0-1.024-.168-1.392-.504-.352-.336-.528-.76-.528-1.272s.176-.928.528-1.248c.368-.336.832-.504 1.392-.504.56 0 1.016.168 1.368.504.368.32.552.736.552 1.248s-.184.936-.552 1.272c-.352.336-.808.504-1.368.504ZM124.102 33V21.096h3.072V33h-3.072Zm12.062.288c-1.2 0-2.264-.256-3.192-.768a5.559 5.559 0 0 1-2.184-2.16c-.528-.928-.792-2-.792-3.216 0-1.232.256-2.328.768-3.288a5.687 5.687 0 0 1 2.16-2.232c.928-.544 2.016-.816 3.264-.816 1.168 0 2.2.256 3.096.768a5.407 5.407 0 0 1 2.088 2.112c.512.88.768 1.864.768 2.952 0 .176-.008.36-.024.552 0 .192-.008.392-.024.6h-9.048c.064.928.384 1.656.96 2.184.592.528 1.304.792 2.136.792.624 0 1.144-.136 1.56-.408.432-.288.752-.656.96-1.104h3.12a5.68 5.68 0 0 1-1.128 2.064 5.423 5.423 0 0 1-1.92 1.44c-.752.352-1.608.528-2.568.528Zm.024-9.984a3.23 3.23 0 0 0-1.992.648c-.576.416-.944 1.056-1.104 1.92h5.928c-.048-.784-.336-1.408-.864-1.872-.528-.464-1.184-.696-1.968-.696Z" fill="#fff"/></svg>

<svg width="144" height="50" viewBox="0 0 144 50" fill="none" xmlns="http://www.w3.org/2000/svg">
<circle cx="25" cy="25" r="25" fill="#2E1AEB"/>
<circle cx="25" cy="25" r="20" fill="#422EFF"/>
<path d="M15 15H20L27.5 25H22.5L15 15Z" fill="#FAFAFA"/>
<path d="M27.5 25L35 35H30L22.5 25H27.5Z" fill="#FAFAFA"/>
<path d="M27.5 25L20 35H15L22.5 25H27.5Z" fill="#FAFAFA"/>
<path d="M26.9 19.1328L30 15H35L30.1 21.5328C29.3 22.6 27.7 22.6 26.9 21.5328C26.3672 20.8219 26.3672 19.8438 26.9 19.1328Z" fill="#FAFAFA"/>
<path d="M75.632 33V16.2H79.28L84.632 26.856L89.912 16.2H93.56V33H90.488V21.408L85.808 30.6H83.384L78.704 21.408V33H75.632ZM102.46 33.288C101.308 33.288 100.268 33.024 99.3395 32.496C98.4275 31.968 97.6995 31.24 97.1555 30.312C96.6275 29.368 96.3635 28.28 96.3635 27.048C96.3635 25.816 96.6355 24.736 97.1795 23.808C97.7235 22.864 98.4515 22.128 99.3635 21.6C100.292 21.072 101.332 20.808 102.484 20.808C103.62 20.808 104.644 21.072 105.556 21.6C106.484 22.128 107.212 22.864 107.74 23.808C108.284 24.736 108.556 25.816 108.556 27.048C108.556 28.28 108.284 29.368 107.74 30.312C107.212 31.24 106.484 31.968 105.556 32.496C104.628 33.024 103.596 33.288 102.46 33.288ZM102.46 30.624C103.26 30.624 103.956 30.328 104.548 29.736C105.14 29.128 105.436 28.232 105.436 27.048C105.436 25.864 105.14 24.976 104.548 24.384C103.956 23.776 103.268 23.472 102.484 23.472C101.668 23.472 100.964 23.776 100.372 24.384C99.7955 24.976 99.5075 25.864 99.5075 27.048C99.5075 28.232 99.7955 29.128 100.372 29.736C100.964 30.328 101.66 30.624 102.46 30.624ZM113.932 33L109.564 21.096H112.78L115.804 30.096L118.828 21.096H122.044L117.652 33H113.932ZM125.638 19.248C125.078 19.248 124.614 19.08 124.246 18.744C123.894 18.408 123.718 17.984 123.718 17.472C123.718 16.96 123.894 16.544 124.246 16.224C124.614 15.888 125.078 15.72 125.638 15.72C126.198 15.72 126.654 15.888 127.006 16.224C127.374 16.544 127.558 16.96 127.558 17.472C127.558 17.984 127.374 18.408 127.006 18.744C126.654 19.08 126.198 19.248 125.638 19.248ZM124.102 33V21.096H127.174V33H124.102ZM136.164 33.288C134.964 33.288 133.9 33.032 132.972 32.52C132.044 32.008 131.316 31.288 130.788 30.36C130.26 29.432 129.996 28.36 129.996 27.144C129.996 25.912 130.252 24.816 130.764 23.856C131.292 22.896 132.012 22.152 132.924 21.624C133.852 21.08 134.94 20.808 136.188 20.808C137.356 20.808 138.388 21.064 139.284 21.576C140.18 22.088 140.876 22.792 141.372 23.688C141.884 24.568 142.14 25.552 142.14 26.64C142.14 26.816 142.132 27 142.116 27.192C142.116 27.384 142.108 27.584 142.092 27.792H133.044C133.108 28.72 133.428 29.448 134.004 29.976C134.596 30.504 135.308 30.768 136.14 30.768C136.764 30.768 137.284 30.632 137.7 30.36C138.132 30.072 138.452 29.704 138.66 29.256H141.78C141.556 30.008 141.18 30.696 140.652 31.32C140.14 31.928 139.5 32.408 138.732 32.76C137.98 33.112 137.124 33.288 136.164 33.288ZM136.188 23.304C135.436 23.304 134.772 23.52 134.196 23.952C133.62 24.368 133.252 25.008 133.092 25.872H139.02C138.972 25.088 138.684 24.464 138.156 24C137.628 23.536 136.972 23.304 136.188 23.304Z" fill="white"/>
</svg>
